Newaita-dark/actions/16/kdenlive-show-audiothumb.svg

<svg height="16" viewBox="0 0 16 16" width="16" xmlns="http://www.w3.org/2000/svg"><g fill="#e0e0e0"><path d="m1.324219 8.394531v-.660156c0-.183594.148437-.332031.328125-.332031h.664062c.179688 0 .328125.148437.328125.332031v.660156c0 .183594-.148437.332031-.328125.332031h-.664062c-.179688 0-.328125-.148437-.328125-.332031zm0 0"/><path d="m13.230469 8.394531v-.660156c0-.183594.148437-.332031.332031-.332031h.660156c.183594 0 .332032.148437.332032.332031v.660156c0 .183594-.148438.332031-.332032.332031h-.660156c-.183594 0-.332031-.148437-.332031-.332031zm0 0"/><path d="m7.929688 1.453125c-.320313.003906-.589844.234375-.640626.546875l-1.417968 8.496094-1.257813-5.878906c-.066406-.304688-.335937-.523438-.648437-.519532-.3125 0-.578125.222656-.640625.527344l-.554688 2.78125h-.453125c-.238281-.003906-.460937.121094-.578125.324219-.121093.207031-.121093.460937 0 .664062.117188.207031.339844.332031.578125.328125h.992188c.3125 0 .582031-.222656.644531-.53125l.039063-.191406 1.316406 6.15625c.066406.308594.34375.527344.660156.519531.316406-.007812.582031-.238281.632812-.550781l1.375-8.238281 1.300782 6.929687c.054687.296875.308594.519532.609375.535156.304687.015626.578125-.175781.667969-.46875l1.386718-4.621093.003906.007812c.089844.269531.339844.453125.625.453125h1.320313c.238281.003906.460937-.121094.578125-.328125.121094-.203125.121094-.457031 0-.664062-.117188-.203125-.339844-.328125-.578125-.324219h-.847656l-.511719-1.535156c-.089844-.273438-.347656-.453125-.632812-.449219-.289063.003906-.539063.191406-.621094.46875l-1.207032 4.019531-1.484374-7.921875c-.058594-.316406-.335938-.542969-.65625-.535156zm0 0"/></g></svg>

<?xml version="1.0" encoding="UTF-8"?>
<svg xmlns="http://www.w3.org/2000/svg" xmlns:xlink="http://www.w3.org/1999/xlink" width="16px" height="16px" viewBox="0 0 16 16" version="1.1">
<g id="surface1">
<path style=" stroke:none;fill-rule:nonzero;fill:rgb(87.843138%,87.843138%,87.843138%);fill-opacity:1;" d="M 1.324219 8.394531 L 1.324219 7.734375 C 1.324219 7.550781 1.472656 7.402344 1.652344 7.402344 L 2.316406 7.402344 C 2.496094 7.402344 2.644531 7.550781 2.644531 7.734375 L 2.644531 8.394531 C 2.644531 8.578125 2.496094 8.726562 2.316406 8.726562 L 1.652344 8.726562 C 1.472656 8.726562 1.324219 8.578125 1.324219 8.394531 Z M 1.324219 8.394531 "/>
<path style=" stroke:none;fill-rule:nonzero;fill:rgb(87.843138%,87.843138%,87.843138%);fill-opacity:1;" d="M 13.230469 8.394531 L 13.230469 7.734375 C 13.230469 7.550781 13.378906 7.402344 13.5625 7.402344 L 14.222656 7.402344 C 14.40625 7.402344 14.554688 7.550781 14.554688 7.734375 L 14.554688 8.394531 C 14.554688 8.578125 14.40625 8.726562 14.222656 8.726562 L 13.5625 8.726562 C 13.378906 8.726562 13.230469 8.578125 13.230469 8.394531 Z M 13.230469 8.394531 "/>
<path style=" stroke:none;fill-rule:nonzero;fill:rgb(87.843138%,87.843138%,87.843138%);fill-opacity:1;" d="M 7.929688 1.453125 C 7.609375 1.457031 7.339844 1.6875 7.289062 2 L 5.871094 10.496094 L 4.613281 4.617188 C 4.546875 4.3125 4.277344 4.09375 3.964844 4.097656 C 3.652344 4.097656 3.386719 4.320312 3.324219 4.625 L 2.769531 7.40625 L 2.316406 7.40625 C 2.078125 7.402344 1.855469 7.527344 1.738281 7.730469 C 1.617188 7.9375 1.617188 8.191406 1.738281 8.394531 C 1.855469 8.601562 2.078125 8.726562 2.316406 8.722656 L 3.308594 8.722656 C 3.621094 8.722656 3.890625 8.5 3.953125 8.191406 L 3.992188 8 L 5.308594 14.15625 C 5.375 14.464844 5.652344 14.683594 5.96875 14.675781 C 6.285156 14.667969 6.550781 14.4375 6.601562 14.125 L 7.976562 5.886719 L 9.277344 12.816406 C 9.332031 13.113281 9.585938 13.335938 9.886719 13.351562 C 10.191406 13.367188 10.464844 13.175781 10.554688 12.882812 L 11.941406 8.261719 L 11.945312 8.269531 C 12.035156 8.539062 12.285156 8.722656 12.570312 8.722656 L 13.890625 8.722656 C 14.128906 8.726562 14.351562 8.601562 14.46875 8.394531 C 14.589844 8.191406 14.589844 7.9375 14.46875 7.730469 C 14.351562 7.527344 14.128906 7.402344 13.890625 7.40625 L 13.042969 7.40625 L 12.53125 5.871094 C 12.441406 5.597656 12.183594 5.417969 11.898438 5.421875 C 11.609375 5.425781 11.359375 5.613281 11.277344 5.890625 L 10.070312 9.910156 L 8.585938 1.988281 C 8.527344 1.671875 8.25 1.445312 7.929688 1.453125 Z M 7.929688 1.453125 "/>
</g>
</svg>
